;FLAVOR:Marlin
;TIME:6119
;Filament used: 2.92455m
;Layer height: 0.2
;MINX:130.046
;MINY:122.519
;MINZ:0.2
;MAXX:167.189
;MAXY:176.651
;MAXZ:25.8
;TARGET_MACHINE.NAME:Creality K1 Max
;Generated with Cura_SteamEngine 5.9.0
M82 ;absolute extrusion mode
M140 S0
M104 S0 
START_PRINT EXTRUDER_TEMP=210.0 BED_TEMP=60.0

G92 E0
G92 E0
G1 F2400 E-3
;LAYER_COUNT:129
;LAYER:0
M107
G0 F6000 X154.374 Y176.265 Z0.2
;TYPE:SKIRT
G1 F2400 E0
G1 F1200 X153.417 Y176.225 E0.03186
G1 X152.359 Y175.912 E0.06855
G1 X151.517 Y175.313 E0.10292
G1 X150.056 Y175.456 E0.15175
G1 X146.567 Y175.429 E0.2678
G1 X145.549 Y175.308 E0.30189
G1 X145.325 Y175.517 E0.31208
G1 X144.348 Y176.002 E0.34836
G1 X143.535 Y176.264 E0.37677
G1 X142.36 Y176.197 E0.41592
G1 X138.952 Y175.531 E0.53141
G1 X138.004 Y175.134 E0.56559
G1 X137.089 Y174.405 E0.60451
G1 X136.58 Y173.583 E0.63666
G1 X136.179 Y172.523 E0.67436
G1 X136.194 Y171.354 E0.71324
G1 X136.267 Y170.859 E0.72988
G1 X136.267 Y170.452 E0.74342
G1 X136.256 Y170.144 E0.75367
G1 X136.272 Y169.821 E0.76443
G1 X136.271 Y169.521 E0.7744
G1 X136.254 Y169.207 E0.78486
G1 X136.27 Y168.539 E0.80709
G1 X136.254 Y168.24 E0.81705
G1 X136.27 Y167.573 E0.83924
G1 X136.254 Y167.274 E0.8492
G1 X136.27 Y166.606 E0.87142
G1 X136.254 Y166.299 E0.88165
G1 X136.269 Y165.623 E0.90414
G1 X136.255 Y165.367 E0.91266
G1 X136.266 Y164.676 E0.93565
G1 X136.249 Y164.395 E0.94501
G1 X136.248 Y163.925 E0.96064
G1 X136.266 Y163.145 E0.98659
G1 X136.266 Y162.734 E1.00026
G1 X136.25 Y162.434 E1.01026
G1 X136.266 Y161.919 E1.02739
G1 X136.172 Y161.462 E1.04291
G1 X136.352 Y160.293 E1.08225
G1 X136.3 Y159.949 E1.09382
G1 X136.448 Y158.698 E1.13572
G1 X136.926 Y157.828 E1.16874
G1 X137.055 Y157.352 E1.18514
G1 X137.349 Y156.826 E1.20518
G1 X137.449 Y156.477 E1.21726
G1 X137.66 Y156.113 E1.23125
G1 X137.852 Y155.565 E1.25056
G1 X137.901 Y155.27 E1.26051
G1 X137.916 Y154.847 E1.27459
G1 X137.877 Y154.736 E1.2785
G1 X137.575 Y154.373 E1.29421
G1 X137.146 Y153.934 E1.31462
G1 X136.885 Y153.722 E1.3258
G1 X136.531 Y153.373 E1.34234
G1 X135.747 Y152.753 E1.37558
G1 X135.092 Y152.598 E1.39797
G1 X133.969 Y151.906 E1.44184
G1 X133.155 Y150.905 E1.48476
G1 X132.701 Y149.531 E1.53288
G1 X132.712 Y149.178 E1.54463
G1 X132.091 Y147.959 E1.59013
G1 X131.653 Y147.414 E1.61339
G1 X130.877 Y145.066 E1.69564
G1 X130.553 Y144.118 E1.72896
G1 X130.35 Y143.184 E1.76075
G1 X130.046 Y141.991 E1.8017
G1 X130.055 Y141.158 E1.8294
G1 X130.103 Y140.826 E1.84056
G1 X130.128 Y138.725 E1.91045
G1 X130.154 Y138.553 E1.91623
G1 X130.171 Y137.733 E1.94351
G1 X130.101 Y137.247 E1.95984
G1 X130.226 Y136.159 E1.99627
G1 X130.338 Y135.753 E2.01027
G1 X130.769 Y134.975 E2.03986
G1 X130.971 Y134.738 E2.05021
G1 X131.174 Y134.253 E2.0677
G1 X131.631 Y133.016 E2.11156
G1 X131.946 Y132.558 E2.13005
G1 X132.248 Y132.006 E2.15098
G1 X132.684 Y131.127 E2.18361
G1 X132.679 Y130.799 E2.19452
G1 X132.931 Y129.814 E2.22834
G1 X133.691 Y128.633 E2.27505
G1 X134.851 Y127.82 E2.32216
G1 X135.328 Y127.684 E2.33866
G1 X135.646 Y127.429 E2.35222
G1 X135.954 Y127.084 E2.3676
G1 X137.493 Y126.039 E2.42947
G1 X137.661 Y125.824 E2.43855
G1 X138.133 Y125.357 E2.46063
G1 X139.108 Y124.778 E2.49835
G1 X140.015 Y124.61 E2.52903
G1 X140.126 Y124.603 E2.53273
G1 X140.38 Y124.474 E2.5422
G1 X140.618 Y124.264 E2.55276
G1 X141.361 Y123.885 E2.5805
G1 X142.045 Y123.648 E2.60458
G1 X142.55 Y123.623 E2.62139
G1 X142.925 Y123.54 E2.63417
G1 X144.394 Y123.019 E2.68601
G1 X146.361 Y122.636 E2.75266
G1 X146.716 Y122.613 E2.76449
G1 X147.465 Y122.53 E2.78956
G1 X149.715 Y122.519 E2.86439
G1 X150.099 Y122.597 E2.87743
G1 X150.789 Y122.641 E2.90042
G1 X153.099 Y123.093 E2.97871
G1 X154.088 Y123.492 E3.01418
G1 X154.692 Y123.659 E3.03502
G1 X155.088 Y123.71 E3.0483
G1 X155.652 Y123.847 E3.06761
G1 X156.513 Y124.297 E3.09992
G1 X156.775 Y124.537 E3.11174
G1 X157.032 Y124.627 E3.1208
G1 X157.312 Y124.662 E3.13018
G1 X158.057 Y124.835 E3.15562
G1 X159.183 Y125.532 E3.19966
G1 X159.711 Y126.191 E3.22775
G1 X160.117 Y126.283 E3.2416
G1 X161.11 Y126.897 E3.28043
G1 X161.663 Y127.44 E3.3062
G1 X161.84 Y127.713 E3.31703
G1 X162.1 Y127.806 E3.32621
G1 X162.974 Y128.347 E3.3604
G1 X163.589 Y128.948 E3.389
G1 X164.215 Y130.095 E3.43246
G1 X164.327 Y131.092 E3.46583
G1 X164.905 Y132.194 E3.50722
G1 X165.052 Y132.45 E3.51703
G1 X165.386 Y132.882 E3.5352
G1 X166.104 Y134.796 E3.60319
G1 X166.319 Y135.057 E3.61444
G1 X166.805 Y136.091 E3.65244
G1 X166.907 Y137.095 E3.686
G1 X166.803 Y138.097 E3.71951
G1 X166.952 Y138.628 E3.73785
G1 X166.957 Y140.276 E3.79266
G1 X167.001 Y140.417 E3.79758
G1 X167.189 Y141.255 E3.82614
G1 X167.075 Y142.309 E3.8614
G1 X166.613 Y143.75 E3.91173
G1 X166.363 Y144.615 E3.94168
G1 X166.291 Y144.792 E3.94803
G1 X165.412 Y147.387 E4.03916
G1 X165.059 Y147.844 E4.05837
G1 X164.858 Y148.212 E4.07231
G1 X164.308 Y149.303 E4.11295
G1 X164.286 Y149.66 E4.12485
G1 X163.985 Y150.645 E4.1591
G1 X163.699 Y151.161 E4.17873
G1 X163.138 Y151.78 E4.20651
G1 X162.371 Y152.417 E4.23967
G1 X161.411 Y152.717 E4.27313
G1 X161.196 Y152.869 E4.28188
G1 X160.872 Y153.128 E4.29568
G1 X159.608 Y154.262 E4.35216
G1 X159.142 Y154.847 E4.37704
G1 X159.135 Y155.225 E4.38961
G1 X159.255 Y155.755 E4.40768
G1 X159.411 Y156.158 E4.42206
G1 X159.627 Y156.579 E4.4378
G1 X159.971 Y157.46 E4.46925
G1 X160.111 Y157.746 E4.47984
G1 X160.18 Y157.93 E4.48638
G1 X160.381 Y158.279 E4.49977
G1 X160.702 Y159.258 E4.53404
G1 X160.729 Y159.97 E4.55774
G1 X160.704 Y160.272 E4.56782
G1 X160.844 Y161.122 E4.59647
G1 X160.785 Y161.657 E4.61437
G1 X160.805 Y162.461 E4.64112
G1 X160.794 Y162.689 E4.64871
G1 X160.803 Y162.985 E4.65856
G1 X160.795 Y163.151 E4.66409
G1 X160.805 Y163.476 E4.67491
G1 X160.797 Y163.64 E4.68037
G1 X160.808 Y163.929 E4.68999
G1 X160.796 Y164.18 E4.69834
G1 X160.801 Y164.979 E4.72492
G1 X160.793 Y165.111 E4.72932
G1 X160.803 Y165.484 E4.74173
G1 X160.798 Y165.587 E4.74516
G1 X160.811 Y166.12 E4.76289
G1 X160.792 Y166.553 E4.77731
G1 X160.804 Y167.342 E4.80355
G1 X160.796 Y167.522 E4.80954
G1 X160.804 Y167.804 E4.81893
G1 X160.795 Y167.99 E4.82512
G1 X160.804 Y168.285 E4.83494
G1 X160.795 Y168.472 E4.84116
G1 X160.804 Y168.735 E4.84992
G1 X160.793 Y168.959 E4.85738
G1 X160.803 Y169.218 E4.866
G1 X160.792 Y169.443 E4.87349
G1 X160.804 Y170.158 E4.89727
G1 X160.792 Y170.386 E4.90487
G1 X160.802 Y170.933 E4.92306
G1 X160.917 Y171.663 E4.94764
G1 X160.835 Y172.615 E4.97942
G1 X160.453 Y173.732 E5.01869
G1 X159.686 Y174.609 E5.05744
G1 X159.026 Y175.175 E5.08636
G1 X158.079 Y175.515 E5.11982
G1 X154.374 Y176.265 E5.24555
G0 F6000 X154.344 Y175.863
G1 F1200 X153.483 Y175.827 E5.27421
G1 X152.536 Y175.547 E5.30706
G1 X151.861 Y175.067 E5.33461
G1 X151.668 Y174.872 E5.34373
G1 X151.272 Y174.935 E5.35707
G1 X150.059 Y175.056 E5.39761
G1 X146.614 Y175.032 E5.5122
G1 X145.39 Y174.887 E5.55319
G1 X145.146 Y175.159 E5.56535
G1 X144.225 Y175.621 E5.59962
G1 X143.481 Y175.861 E5.62562
G1 X142.437 Y175.804 E5.66039
G1 X139.068 Y175.146 E5.77456
G1 X138.209 Y174.786 E5.80554
G1 X137.393 Y174.136 E5.84024
G1 X136.939 Y173.403 E5.86892
G1 X136.58 Y172.453 E5.9027
G1 X136.59 Y171.412 E5.93732
G1 X136.667 Y170.89 E5.95487
G1 X136.667 Y170.436 E5.96997
G1 X136.656 Y170.164 E5.97902
G1 X136.672 Y169.841 E5.98978
G1 X136.671 Y169.52 E6.00046
G1 X136.654 Y169.216 E6.01058
G1 X136.67 Y168.539 E6.03311
G1 X136.654 Y168.249 E6.04277
G1 X136.67 Y167.573 E6.06526
G1 X136.654 Y167.283 E6.07492
G1 X136.67 Y166.607 E6.09741
G1 X136.654 Y166.308 E6.10737
G1 X136.669 Y165.623 E6.13016
G1 X136.655 Y165.373 E6.13848
G1 X136.666 Y164.676 E6.16167
G1 X136.649 Y164.394 E6.17107
G1 X136.648 Y163.934 E6.18637
G1 X136.666 Y163.154 E6.21232
G1 X136.666 Y162.734 E6.22628
G1 X136.65 Y162.447 E6.23585
G1 X136.668 Y161.884 E6.25458
G1 X136.578 Y161.45 E6.26932
G1 X136.757 Y160.291 E6.30833
G1 X136.704 Y159.94 E6.32013
G1 X136.836 Y158.824 E6.35751
G1 X137.299 Y157.982 E6.38947
G1 X137.428 Y157.504 E6.40594
G1 X137.72 Y156.981 E6.42586
G1 X137.82 Y156.634 E6.43787
G1 X138.024 Y156.281 E6.45143
G1 X138.242 Y155.659 E6.47335
G1 X138.3 Y155.312 E6.48506
G1 X138.318 Y154.789 E6.50246
G1 X138.231 Y154.535 E6.51139
G1 X137.875 Y154.107 E6.52991
G1 X137.419 Y153.641 E6.55159
G1 X137.166 Y153.437 E6.5624
G1 X136.797 Y153.073 E6.57964
G1 X136.09 Y152.514 E6.60962
G1 X135.856 Y152.368 E6.61879
G1 X135.246 Y152.224 E6.63964
G1 X134.236 Y151.601 E6.67911
G1 X133.512 Y150.711 E6.71727
G1 X133.103 Y149.473 E6.76063
G1 X133.115 Y149.089 E6.77341
G1 X132.427 Y147.738 E6.82383
G1 X132.01 Y147.219 E6.84598
G1 X131.256 Y144.94 E6.92582
G1 X130.944 Y144.033 E6.95772
G1 X130.738 Y143.085 E6.98999
G1 X130.447 Y141.941 E7.02925
G1 X130.451 Y141.216 E7.05336
G1 X130.503 Y140.859 E7.06536
G1 X130.524 Y138.784 E7.13438
G1 X130.553 Y138.589 E7.14094
G1 X130.572 Y137.709 E7.17021
G1 X130.505 Y137.243 E7.18587
G1 X130.612 Y136.266 E7.21856
G1 X130.712 Y135.904 E7.23105
G1 X131.1 Y135.204 E7.25767
G1 X131.316 Y134.95 E7.26876
G1 X131.543 Y134.408 E7.28831
G1 X131.987 Y133.205 E7.33096
G1 X132.285 Y132.772 E7.34844
G1 X132.599 Y132.198 E7.3702
G1 X133.086 Y131.217 E7.40663
G1 X133.08 Y130.848 E7.4189
G1 X133.304 Y129.973 E7.44894
G1 X133.983 Y128.918 E7.49067
G1 X135.027 Y128.186 E7.53308
G1 X135.516 Y128.047 E7.54999
G1 X135.918 Y127.724 E7.56714
G1 X136.217 Y127.389 E7.58208
G1 X137.77 Y126.334 E7.64452
G1 X137.942 Y126.108 E7.65397
G1 X138.378 Y125.677 E7.67436
G1 X139.251 Y125.158 E7.70814
G1 X140.042 Y125.009 E7.73491
G1 X140.235 Y124.996 E7.74134
G1 X140.604 Y124.809 E7.7551
G1 X140.844 Y124.598 E7.76573
G1 X141.492 Y124.263 E7.78999
G1 X142.12 Y124.045 E7.8121
G1 X142.603 Y124.021 E7.82819
G1 X143.037 Y123.925 E7.84297
G1 X144.47 Y123.412 E7.89359
G1 X146.437 Y123.029 E7.96024
G1 X146.76 Y123.011 E7.971
G1 X147.509 Y122.928 E7.99607
G1 X149.675 Y122.919 E8.06811
G1 X150.044 Y122.994 E8.08063
G1 X150.712 Y123.034 E8.10289
G1 X152.986 Y123.479 E8.17996
G1 X153.955 Y123.87 E8.21471
G1 X154.616 Y124.053 E8.23753
G1 X154.994 Y124.099 E8.25019
G1 X155.513 Y124.225 E8.26795
G1 X156.328 Y124.651 E8.29854
G1 X156.553 Y124.882 E8.30927
G1 X156.94 Y125.019 E8.32292
G1 X157.222 Y125.052 E8.33236
G1 X157.904 Y125.21 E8.35565
G1 X158.914 Y125.835 E8.39515
G1 X159.42 Y126.466 E8.42205
G1 X159.568 Y126.568 E8.42803
G1 X159.963 Y126.658 E8.44151
G1 X160.861 Y127.214 E8.47664
G1 X161.383 Y127.726 E8.50096
G1 X161.573 Y128.049 E8.51342
G1 X161.89 Y128.146 E8.52445
G1 X162.724 Y128.662 E8.55706
G1 X163.267 Y129.193 E8.58233
G1 X163.826 Y130.217 E8.62113
G1 X163.937 Y131.21 E8.65436
G1 X164.558 Y132.393 E8.6988
G1 X164.718 Y132.672 E8.7095
G1 X165.033 Y133.079 E8.72661
G1 X165.754 Y135 E8.79486
G1 X165.979 Y135.273 E8.80663
G1 X166.414 Y136.199 E8.84065
G1 X166.505 Y137.094 E8.87057
G1 X166.397 Y138.131 E8.90525
G1 X166.552 Y138.683 E8.92432
G1 X166.557 Y140.341 E8.97947
G1 X166.611 Y140.505 E8.98521
G1 X166.784 Y141.276 E9.01149
G1 X166.681 Y142.227 E9.04331
G1 X166.228 Y143.64 E9.09266
G1 X165.992 Y144.464 E9.12117
G1 X165.92 Y144.641 E9.12752
G1 X165.055 Y147.195 E9.21721
G1 X164.723 Y147.625 E9.23528
G1 X164.507 Y148.02 E9.25025
G1 X163.91 Y149.205 E9.29438
G1 X163.904 Y149.543 E9.30563
G1 X163.615 Y150.487 E9.33846
G1 X163.373 Y150.925 E9.35511
G1 X162.882 Y151.472 E9.37955
G1 X162.175 Y152.059 E9.41012
G1 X161.362 Y152.319 E9.43851
G1 X161.246 Y152.345 E9.44246
G1 X160.956 Y152.549 E9.45425
G1 X160.605 Y152.83 E9.46921
G1 X159.316 Y153.986 E9.5268
G1 X158.745 Y154.704 E9.55731
G1 X158.734 Y155.266 E9.576
G1 X158.845 Y155.753 E9.59262
G1 X158.921 Y155.999 E9.60118
G1 X159.046 Y156.323 E9.61273
G1 X159.254 Y156.724 E9.62776
G1 X159.603 Y157.618 E9.65968
G1 X159.736 Y157.886 E9.66963
G1 X159.815 Y158.098 E9.67715
G1 X160.013 Y158.441 E9.69032
G1 X160.304 Y159.328 E9.72137
G1 X160.33 Y159.937 E9.74165
G1 X160.301 Y160.288 E9.75336
G1 X160.44 Y161.132 E9.78181
G1 X160.384 Y161.643 E9.79891
G1 X160.395 Y161.95 E9.80913
G1 X160.39 Y162.072 E9.81319
G1 X160.405 Y162.441 E9.82547
G1 X160.393 Y162.683 E9.83353
G1 X160.403 Y162.966 E9.84295
G1 X160.394 Y163.151 E9.84911
G1 X160.405 Y163.456 E9.85926
G1 X160.396 Y163.64 E9.86539
G1 X160.408 Y163.91 E9.87438
G1 X160.396 Y164.161 E9.88273
G1 X160.401 Y164.981 E9.91001
G1 X160.393 Y165.108 E9.91424
G1 X160.403 Y165.466 E9.92615
G1 X160.398 Y165.579 E9.92991
G1 X160.411 Y166.102 E9.94731
G1 X160.392 Y166.535 E9.96173
G1 X160.404 Y167.323 E9.98794
G1 X160.395 Y167.516 E9.99437
G1 X160.404 Y167.785 E10.00332
G1 X160.394 Y167.99 E10.01015
G1 X160.404 Y168.266 E10.01933
G1 X160.394 Y168.472 E10.02619
G1 X160.404 Y168.749 E10.03541
G1 X160.393 Y168.965 E10.0426
G1 X160.403 Y169.233 E10.05152
G1 X160.392 Y169.45 E10.05875
G1 X160.404 Y170.165 E10.08254
G1 X160.392 Y170.393 E10.09013
G1 X160.402 Y170.966 E10.10919
G1 X160.514 Y171.675 E10.13306
G1 X160.44 Y172.535 E10.16177
G1 X160.1 Y173.528 E10.19668
G1 X159.426 Y174.305 E10.23089
G1 X158.822 Y174.823 E10.25736
G1 X157.944 Y175.138 E10.28838
G1 X154.344 Y175.863 E10.41052
G0 F6000 X154.314 Y175.461
G1 F1200 X153.55 Y175.429 E10.43596
G1 X152.712 Y175.181 E10.46502
G1 X152.093 Y174.741 E10.49028
G1 X151.815 Y174.444 E10.50381
G1 X151.232 Y174.537 E10.52345
G1 X150.061 Y174.656 E10.5626
G1 X146.661 Y174.635 E10.67568
G1 X145.706 Y174.522 E10.70767
G1 X145.248 Y174.447 E10.72311
G1 X144.899 Y174.835 E10.74046
G1 X144.102 Y175.24 E10.7702
G1 X143.427 Y175.458 E10.79379
G1 X142.514 Y175.411 E10.8242
G1 X139.182 Y174.76 E10.93712
G1 X138.415 Y174.439 E10.96477
G1 X137.697 Y173.867 E10.9953
G1 X137.298 Y173.223 E11.0205
G1 X136.981 Y172.383 E11.05036
G1 X136.986 Y171.47 E11.08073
G1 X137.068 Y170.912 E11.09949
G1 X137.057 Y170.699 E11.10658
G1 X137.068 Y170.436 E11.11534
G1 X137.056 Y170.184 E11.12373
G1 X137.072 Y169.861 E11.13448
G1 X137.071 Y169.519 E11.14586
G1 X137.054 Y169.225 E11.15565
G1 X137.07 Y168.539 E11.17848
G1 X137.054 Y168.258 E11.18784
G1 X137.07 Y167.573 E11.21063
G1 X137.054 Y167.292 E11.21999
G1 X137.07 Y166.607 E11.24278
G1 X137.054 Y166.317 E11.25244
G1 X137.069 Y165.623 E11.27552
G1 X137.055 Y165.379 E11.28365
G1 X137.066 Y164.67 E11.30724
G1 X137.049 Y164.393 E11.31647
G1 X137.048 Y163.943 E11.33144
G1 X137.066 Y163.163 E11.35739
G1 X137.066 Y162.734 E11.37165
G1 X137.05 Y162.459 E11.38082
G1 X137.069 Y161.849 E11.40111
G1 X136.984 Y161.438 E11.41507
G1 X137.162 Y160.289 E11.45375
G1 X137.108 Y159.931 E11.46579
G1 X137.224 Y158.95 E11.49864
G1 X137.672 Y158.135 E11.52958
G1 X137.802 Y157.655 E11.54612
G1 X138.091 Y157.137 E11.56584
G1 X138.19 Y156.792 E11.57778
G1 X138.389 Y156.448 E11.591
G1 X138.632 Y155.756 E11.61539
G1 X138.699 Y155.352 E11.62901
G1 X138.714 Y154.939 E11.64276
G1 X138.704 Y154.68 E11.65138
G1 X138.585 Y154.335 E11.66352
G1 X138.173 Y153.841 E11.68491
G1 X137.683 Y153.339 E11.70825
G1 X137.417 Y153.125 E11.7196
G1 X137.064 Y152.774 E11.73616
G1 X136.323 Y152.188 E11.76758
G1 X136.012 Y151.994 E11.77977
G1 X135.403 Y151.85 E11.80058
G1 X134.501 Y151.294 E11.83583
G1 X133.87 Y150.518 E11.86909
G1 X133.505 Y149.414 E11.90777
G1 X133.518 Y149.001 E11.92151
G1 X132.763 Y147.518 E11.97686
G1 X132.368 Y147.026 E11.99784
G1 X131.636 Y144.814 E12.07534
G1 X131.335 Y143.948 E12.10583
G1 X131.126 Y142.986 E12.13857
G1 X130.847 Y141.89 E12.17619
G1 X130.851 Y141.218 E12.19854
G1 X130.903 Y140.892 E12.20952
G1 X130.92 Y138.842 E12.27771
G1 X130.952 Y138.624 E12.28504
G1 X130.973 Y137.685 E12.31627
G1 X130.908 Y137.236 E12.33136
G1 X130.998 Y136.372 E12.36026
G1 X131.085 Y136.056 E12.37116
G1 X131.45 Y135.398 E12.39618
G1 X131.659 Y135.167 E12.40655
