;FLAVOR:Marlin
;TIME:5092
;Filament used: 2.46706m
;Layer height: 0.2
;MINX:120.876
;MINY:131.548
;MINZ:0.2
;MAXX:178.906
;MAXY:168.455
;MAXZ:20.4
;TARGET_MACHINE.NAME:Creality K1 Max
;Generated with Cura_SteamEngine 5.9.0
M82 ;absolute extrusion mode
M140 S0
M104 S0 
START_PRINT EXTRUDER_TEMP=210.0 BED_TEMP=60.0

G92 E0
G92 E0
G1 F2400 E-3
;LAYER_COUNT:102
;LAYER:0
M107
G0 F6000 X141.455 Y143.828 Z0.2
;TYPE:SKIRT
G1 F2400 E0
G1 F1200 X141.332 Y143.92 E0.00511
G1 X139.086 Y143.609 E0.08052
G1 X138.973 Y143.554 E0.0847
G1 X138.903 Y143.417 E0.08982
G1 X139.032 Y142.99 E0.10466
G1 X139.263 Y142.659 E0.11808
G1 X139.589 Y142.413 E0.13167
G1 X139.974 Y142.28 E0.14521
G1 X140.379 Y142.271 E0.15869
G1 X140.774 Y142.391 E0.17242
G1 X141.105 Y142.622 E0.18584
G1 X141.351 Y142.948 E0.19943
G1 X141.484 Y143.334 E0.213
G1 X141.492 Y143.709 E0.22548
G1 X141.455 Y143.828 E0.22963
G0 F6000 X141.572 Y144.24
G1 F1200 X141.371 Y144.329 E0.23694
G1 X139.031 Y144.005 E0.31551
G1 X138.798 Y143.914 E0.32383
G1 X138.617 Y143.736 E0.33227
G1 X138.493 Y143.389 E0.34453
G1 X138.667 Y142.814 E0.36451
G1 X138.971 Y142.379 E0.38216
G1 X139.399 Y142.055 E0.40001
G1 X139.903 Y141.881 E0.41775
G1 X140.434 Y141.87 E0.43541
G1 X140.951 Y142.026 E0.45337
G1 X141.386 Y142.33 E0.47102
G1 X141.708 Y142.758 E0.48884
G1 X141.883 Y143.264 E0.50665
G1 X141.892 Y143.7 E0.52115
G1 X141.811 Y144.011 E0.53184
G1 X141.572 Y144.24 E0.54285
G1 F2400 E-2.45715
G0 F6000 X141.548 Y144.42
G0 X140.35 Y156.05
G0 X140.007 Y157.212
G0 X139.751 Y157.581
G0 X139.31 Y157.954
G0 X139.031 Y157.586
G1 F2400 E0.54285
G1 F1200 X138.641 Y157.72 E0.55656
G1 X138.237 Y157.729 E0.57001
G1 X137.843 Y157.609 E0.5837
G1 X137.513 Y157.379 E0.59708
G1 X137.265 Y157.052 E0.61073
G1 X137.132 Y156.665 E0.62434
G1 X137.125 Y156.29 E0.63682
G1 X137.162 Y156.171 E0.64096
G1 X137.285 Y156.08 E0.64605
G1 X139.531 Y156.391 E0.72147
G1 X139.644 Y156.446 E0.72565
G1 X139.715 Y156.584 E0.73081
G1 X139.584 Y157.008 E0.74557
G1 X139.352 Y157.342 E0.75909
G1 X139.031 Y157.586 E0.77251
G0 F6000 X139.221 Y157.943
G1 F1200 X138.711 Y158.119 E0.79045
G1 X138.18 Y158.13 E0.80811
G1 X137.667 Y157.974 E0.82595
G1 X137.232 Y157.671 E0.84358
G1 X136.908 Y157.245 E0.86138
G1 X136.733 Y156.734 E0.87935
G1 X136.725 Y156.297 E0.89388
G1 X136.78 Y156.052 E0.90224
G1 X136.924 Y155.849 E0.91051
G1 X137.24 Y155.67 E0.92259
G1 X139.586 Y155.995 E1.00137
G1 X139.819 Y156.086 E1.00969
G1 X140 Y156.263 E1.01811
G1 X140.125 Y156.612 E1.03044
G1 X139.947 Y157.187 E1.05046
G1 X139.646 Y157.621 E1.06802
G1 X139.221 Y157.943 E1.08576
G1 F2400 E-1.91424
G0 F6000 X139.248 Y158.001
G0 X142.108 Y168.254
G1 F2400 E1.08576
G1 F1200 X141.656 Y168.256 E1.10079
G1 X141.34 Y168.29 E1.11136
G1 X141.085 Y168.332 E1.11996
G1 X138.87 Y168.455 E1.19374
G1 X138.54 Y168.398 E1.20488
G1 X138.161 Y168.45 E1.2176
G1 X135.666 Y168.068 E1.30156
G1 X135.35 Y167.966 E1.3126
G1 X135.02 Y167.96 E1.32358
G1 X132.476 Y167.153 E1.41235
G1 X132.215 Y166.982 E1.42272
G1 X131.894 Y166.9 E1.43374
G1 X129.586 Y165.69 E1.52042
G1 X129.365 Y165.482 E1.53051
G1 X129.083 Y165.357 E1.54077
G1 X127.031 Y163.785 E1.62675
G1 X126.771 Y163.442 E1.64106
G1 X126.458 Y163.231 E1.65362
G1 X124.929 Y161.54 E1.72944
G1 X124.628 Y161.077 E1.74781
G1 X124.303 Y160.752 E1.7631
G1 X123.058 Y158.727 E1.84216
G1 X122.923 Y158.321 E1.85639
G1 X122.591 Y157.74 E1.87865
G1 X121.722 Y155.66 E1.95362
G1 X121.688 Y155.131 E1.97125
G1 X121.472 Y154.65 E1.98879
G1 X121.047 Y152.682 E2.05576
G1 X121.063 Y152.264 E2.06967
G1 X120.95 Y151.874 E2.08317
G1 X120.876 Y149.712 E2.15512
G1 X120.932 Y149.149 E2.17394
G1 X120.955 Y148.432 E2.1978
G1 X121.198 Y146.399 E2.2659
G1 X121.379 Y145.886 E2.28399
G1 X121.477 Y145.291 E2.30405
G1 X122.143 Y143.203 E2.37695
G1 X122.374 Y142.833 E2.39145
G1 X122.468 Y142.454 E2.40444
G1 X123.606 Y140.307 E2.48526
G1 X123.981 Y139.881 E2.50414
G1 X124.37 Y139.227 E2.52945
G1 X125.43 Y137.871 E2.58669
G1 X125.749 Y137.561 E2.60149
G1 X125.928 Y137.37 E2.61019
G1 X126.313 Y136.924 E2.62979
G1 X127.812 Y135.564 E2.69711
G1 X128.283 Y135.293 E2.71518
G1 X129.072 Y134.68 E2.74841
G1 X130.564 Y133.763 E2.80666
G1 X130.92 Y133.645 E2.81913
G1 X131.256 Y133.399 E2.83299
G1 X133.499 Y132.479 E2.91362
G1 X133.884 Y132.427 E2.92654
G1 X134.151 Y132.303 E2.93633
G1 X136.587 Y131.733 E3.01954
G1 X137.051 Y131.751 E3.03499
G1 X137.437 Y131.641 E3.04834
G1 X140.012 Y131.548 E3.13404
G1 X140.479 Y131.688 E3.15025
G1 X141.078 Y131.645 E3.17023
G1 X143.051 Y131.936 E3.23656
G1 X143.516 Y132.114 E3.25312
G1 X144.424 Y132.301 E3.28395
G1 X146.065 Y132.825 E3.34125
G1 X146.354 Y132.987 E3.35227
G1 X146.711 Y133.059 E3.36438
G1 X148.927 Y134.292 E3.44873
G1 X149.274 Y134.548 E3.46307
G1 X149.698 Y134.744 E3.4786
G1 X151.383 Y136.065 E3.54982
G1 X151.741 Y136.434 E3.56692
G1 X152.259 Y136.911 E3.59034
G1 X152.951 Y137.628 E3.62348
G1 X155.479 Y140.946 E3.76222
G1 X155.984 Y141.444 E3.78581
G1 X156.184 Y141.696 E3.79651
G1 X156.443 Y141.801 E3.8058
G1 X156.683 Y141.88 E3.81421
G1 X157.247 Y142.014 E3.83349
G1 X158.017 Y142.058 E3.85914
G1 X158.306 Y142.036 E3.86878
G1 X158.662 Y141.99 E3.88072
G1 X159.042 Y141.913 E3.89362
G1 X160.069 Y141.638 E3.92898
G1 X161.815 Y141.219 E3.9887
G1 X163.673 Y141.247 E4.0505
G1 X175.891 Y142.921 E4.46067
G1 X176.793 Y143.276 E4.49291
G1 X177.549 Y143.812 E4.52374
G1 X178.114 Y144.42 E4.55134
G1 X178.616 Y145.502 E4.59101
G1 X178.77 Y146.033 E4.6094
G1 X178.906 Y150.169 E4.74704
G1 X178.711 Y153.89 E4.87097
G1 X178.226 Y157.319 E4.98616
G1 X177.519 Y160.393 E5.09107
G1 X176.219 Y164.493 E5.23412
G1 X175.707 Y165.331 E5.26679
G1 X174.886 Y166.138 E5.30508
G1 X173.907 Y166.57 E5.34067
G1 X172.753 Y166.809 E5.37986
G1 X160.441 Y165.08 E5.79338
G1 X158.554 Y164.58 E5.85831
G1 X156.78 Y163.573 E5.92615
G1 X156.083 Y163.156 E5.95317
G1 X155.587 Y162.905 E5.97166
G1 X154.963 Y162.691 E5.9936
G1 X154.589 Y162.614 E6.0063
G1 X154.255 Y162.564 E6.01753
G1 X153.888 Y162.554 E6.02974
G1 X153.585 Y162.568 E6.03983
G1 X153.273 Y162.595 E6.05025
G1 X153.023 Y162.775 E6.06049
G1 X152.184 Y163.252 E6.09259
G1 X151.391 Y163.881 E6.12626
G1 X149.139 Y165.576 E6.22001
G1 X148.135 Y166.167 E6.25875
G1 X147.856 Y166.284 E6.26882
G1 X147.563 Y166.515 E6.28123
G1 X145.109 Y167.519 E6.36941
G1 X144.715 Y167.571 E6.38263
G1 X144.439 Y167.708 E6.39288
G1 X142.108 Y168.254 E6.47251
G0 F6000 X142.063 Y167.854
G1 F1200 X141.629 Y167.856 E6.48694
G1 X141.291 Y167.893 E6.49825
G1 X141.021 Y167.937 E6.50735
G1 X138.893 Y168.053 E6.57823
G1 X138.547 Y167.994 E6.58991
G1 X138.164 Y168.046 E6.60276
G1 X135.727 Y167.673 E6.68476
G1 X135.421 Y167.567 E6.69553
G1 X135.084 Y167.561 E6.70674
G1 X132.651 Y166.789 E6.79164
G1 X132.378 Y166.61 E6.8025
G1 X132.036 Y166.523 E6.81424
G1 X129.822 Y165.362 E6.89738
G1 X129.59 Y165.144 E6.90797
G1 X129.285 Y165.009 E6.91907
G1 X127.32 Y163.503 E7.00141
G1 X127.05 Y163.147 E7.01627
G1 X126.721 Y162.925 E7.02947
G1 X125.265 Y161.322 E7.1015
G1 X124.944 Y160.827 E7.12112
G1 X124.622 Y160.506 E7.13624
G1 X123.423 Y158.556 E7.21238
G1 X123.291 Y158.159 E7.22629
G1 X122.96 Y157.586 E7.2483
G1 X122.117 Y155.568 E7.32104
G1 X122.082 Y155.034 E7.33884
G1 X121.855 Y154.526 E7.35735
G1 X121.449 Y152.648 E7.42125
G1 X121.466 Y152.216 E7.43563
G1 X121.348 Y151.811 E7.44966
G1 X121.274 Y149.752 E7.51819
G1 X121.33 Y149.189 E7.53701
G1 X121.345 Y148.924 E7.54584
G1 X121.355 Y148.44 E7.56194
G1 X121.59 Y146.49 E7.62727
G1 X121.768 Y145.984 E7.64511
G1 X121.858 Y145.413 E7.66433
G1 X122.509 Y143.373 E7.73555
G1 X122.746 Y142.992 E7.75048
G1 X122.844 Y142.597 E7.76401
G1 X123.937 Y140.536 E7.84161
G1 X124.308 Y140.114 E7.86029
G1 X124.714 Y139.432 E7.88669
G1 X125.708 Y138.158 E7.94044
G1 X126.041 Y137.835 E7.95587
G1 X126.22 Y137.644 E7.96457
G1 X126.582 Y137.22 E7.98312
G1 X128.047 Y135.891 E8.04891
G1 X128.502 Y135.629 E8.06637
G1 X129.282 Y135.021 E8.09926
G1 X130.734 Y134.128 E8.15596
G1 X131.105 Y134.005 E8.16896
G1 X131.453 Y133.75 E8.18331
G1 X133.605 Y132.868 E8.26066
G1 X134 Y132.815 E8.27392
G1 X134.286 Y132.682 E8.28441
G1 X136.623 Y132.135 E8.36424
G1 X137.099 Y132.153 E8.38008
G1 X137.5 Y132.039 E8.39395
G1 X139.961 Y131.95 E8.47585
G1 X140.435 Y132.092 E8.49231
G1 X141.062 Y132.047 E8.51322
G1 X142.948 Y132.325 E8.57662
G1 X143.403 Y132.499 E8.59283
G1 X144.343 Y132.693 E8.62475
G1 X145.943 Y133.206 E8.68063
G1 X146.205 Y133.365 E8.69083
G1 X146.57 Y133.438 E8.70321
G1 X148.689 Y134.614 E8.78381
G1 X149.067 Y134.893 E8.79944
G1 X149.489 Y135.088 E8.8149
G1 X151.096 Y136.344 E8.88274
G1 X151.47 Y136.729 E8.90059
G1 X151.971 Y137.189 E8.92321
G1 X152.663 Y137.906 E8.95636
G1 X155.181 Y141.214 E9.09463
G1 X155.703 Y141.729 E9.11902
G1 X155.934 Y142.027 E9.13156
G1 X156.299 Y142.175 E9.14466
G1 X156.577 Y142.266 E9.15439
G1 X157.187 Y142.411 E9.17524
G1 X158.024 Y142.459 E9.20312
G1 X158.352 Y142.434 E9.21407
G1 X158.72 Y142.386 E9.22641
G1 X159.132 Y142.303 E9.24039
G1 X160.162 Y142.027 E9.27585
G1 X161.859 Y141.62 E9.3339
G1 X163.667 Y141.647 E9.39404
G1 X175.788 Y143.31 E9.80096
G1 X176.603 Y143.631 E9.8301
G1 X177.281 Y144.112 E9.85774
G1 X177.779 Y144.647 E9.88205
G1 X178.232 Y145.614 E9.91757
G1 X178.372 Y146.096 E9.93426
G1 X178.506 Y150.182 E10.07024
G1 X178.315 Y153.834 E10.19187
G1 X177.836 Y157.229 E10.30591
G1 X177.129 Y160.303 E10.41082
G1 X175.853 Y164.325 E10.55116
G1 X175.392 Y165.079 E10.58056
G1 X174.657 Y165.802 E10.61485
G1 X173.786 Y166.186 E10.64651
G1 X172.739 Y166.403 E10.68207
G1 X160.543 Y164.693 E11.09168
G1 X158.705 Y164.206 E11.15492
G1 X156.985 Y163.23 E11.2207
G1 X156.268 Y162.801 E11.24849
G1 X155.747 Y162.537 E11.26791
G1 X155.064 Y162.303 E11.29193
G1 X154.657 Y162.219 E11.30575
G1 X154.292 Y162.165 E11.31802
G1 X153.881 Y162.154 E11.33169
G1 X153.567 Y162.168 E11.34215
G1 X153.126 Y162.207 E11.35687
G1 X152.825 Y162.427 E11.36927
G1 X152.125 Y162.825 E11.39606
G1 X151.904 Y162.963 E11.40472
G1 X151.15 Y163.562 E11.43675
G1 X148.936 Y165.231 E11.52897
G1 X147.932 Y165.822 E11.56772
G1 X147.653 Y165.935 E11.57773
G1 X147.359 Y166.166 E11.59016
G1 X145.007 Y167.129 E11.6747
G1 X144.598 Y167.183 E11.68842
G1 X144.3 Y167.33 E11.69947
G1 X142.063 Y167.854 E11.77589
G0 F6000 X142.018 Y167.454
G1 F1200 X141.603 Y167.456 E11.78969
G1 X141.237 Y167.496 E11.80193
G1 X140.999 Y167.538 E11.80997
G1 X138.871 Y167.654 E11.88086
G1 X138.549 Y167.585 E11.89181
G1 X138.225 Y167.651 E11.90281
G1 X135.788 Y167.278 E11.9848
G1 X135.496 Y167.168 E11.99518
G1 X135.148 Y167.162 E12.00676
G1 X132.826 Y166.425 E12.08779
G1 X132.536 Y166.235 E12.09932
G1 X132.222 Y166.169 E12.10999
G1 X130.058 Y165.034 E12.19126
G1 X129.815 Y164.806 E12.20235
G1 X129.491 Y164.662 E12.21414
G1 X127.607 Y163.219 E12.29307
G1 X127.33 Y162.854 E12.30831
G1 X126.985 Y162.621 E12.32216
G1 X125.601 Y161.104 E12.39045
G1 X125.259 Y160.577 E12.41135
G1 X124.939 Y160.258 E12.42638
G1 X123.789 Y158.387 E12.49942
G1 X123.659 Y157.996 E12.51313
G1 X123.329 Y157.432 E12.53486
G1 X122.512 Y155.475 E12.6054
G1 X122.476 Y154.937 E12.62333
G1 X122.238 Y154.403 E12.64277
G1 X121.851 Y152.614 E12.70365
G1 X121.868 Y152.167 E12.71853
G1 X121.746 Y151.748 E12.73305
G1 X121.672 Y149.792 E12.79815
G1 X121.728 Y149.229 E12.81697
G1 X121.745 Y148.93 E12.82693
G1 X121.752 Y148.488 E12.84163
G1 X121.982 Y146.581 E12.90552
G1 X122.159 Y146.078 E12.92325
G1 X122.239 Y145.535 E12.94151
G1 X122.875 Y143.542 E13.01109
G1 X123.118 Y143.151 E13.0264
G1 X123.22 Y142.74 E13.04049
G1 X124.266 Y140.768 E13.11473
G1 X124.633 Y140.35 E13.13323
G1 X125.058 Y139.637 E13.16084
G1 X126.023 Y138.405 E13.21289
G1 X126.327 Y138.115 E13.22686
G1 X126.512 Y137.917 E13.23588
G1 X126.851 Y137.516 E13.25334
G1 X128.282 Y136.218 E13.3176
G1 X128.725 Y135.963 E13.3346
G1 X129.492 Y135.362 E13.36701
G1 X130.905 Y134.493 E13.42218
G1 X131.29 Y134.365 E13.43568
G1 X131.65 Y134.102 E13.4505
G1 X133.711 Y133.257 E13.52459
G1 X134.116 Y133.203 E13.53818
G1 X134.421 Y133.061 E13.54937
G1 X136.659 Y132.537 E13.62582
G1 X137.148 Y132.556 E13.6421
G1 X137.564 Y132.437 E13.65649
G1 X139.91 Y132.352 E13.73457
G1 X140.391 Y132.496 E13.75127
G1 X141.046 Y132.449 E13.77311
G1 X142.845 Y132.714 E13.83359
G1 X143.289 Y132.884 E13.8494
G1 X144.221 Y133.074 E13.88104
G1 X145.777 Y133.573 E13.93539
G1 X146.058 Y133.743 E13.94631
G1 X146.429 Y133.818 E13.9589
G1 X148.451 Y134.936 E14.03575
G1 X148.86 Y135.238 E14.05266
G1 X149.277 Y135.431 E14.06794
G1 X150.809 Y136.623 E14.1325
G1 X151.187 Y137.012 E14.15054
G1 X151.683 Y137.467 E14.17293
G1 X152.375 Y138.184 E14.20607
G1 X154.88 Y141.479 E14.34374
G1 X155.387 Y141.974 E14.3673
G1 X155.685 Y142.358 E14.38347
G1 X156.159 Y142.55 E14.40048
G1 X156.467 Y142.651 E14.41126
G1 X157.127 Y142.808 E14.43383
G1 X158.032 Y142.86 E14.46398
G1 X158.394 Y142.832 E14.47605
G1 X158.78 Y142.782 E14.489
G1 X159.222 Y142.693 E14.50399
G1 X160.255 Y142.416 E14.53957
G1 X161.903 Y142.021 E14.59593
G1 X163.661 Y142.047 E14.65441
G1 X175.685 Y143.699 E15.05809
G1 X176.411 Y143.985 E15.08404
G1 X177.015 Y144.414 E15.10868
G1 X177.445 Y144.876 E15.12967
G1 X177.848 Y145.726 E15.16096
G1 X177.974 Y146.159 E15.17596
G1 X178.106 Y150.195 E15.31027
G1 X177.919 Y153.778 E15.4296
G1 X177.446 Y157.139 E15.54249
G1 X176.739 Y160.213 E15.6474
G1 X175.487 Y164.157 E15.78503
G1 X175.077 Y164.827 E15.81115
G1 X174.428 Y165.466 E15.84145
G1 X173.665 Y165.802 E15.86918
G1 X172.725 Y165.997 E15.90111
G1 X160.599 Y164.297 E16.30836
G1 X158.859 Y163.833 E16.36826
G1 X157.19 Y162.887 E16.43207
G1 X156.453 Y162.446 E16.46063
G1 X155.909 Y162.17 E16.48092
G1 X155.163 Y161.915 E16.50714
G1 X154.728 Y161.825 E16.52192
G1 X154.327 Y161.766 E16.5354
G1 X153.875 Y161.754 E16.55044
G1 X153.55 Y161.768 E16.56126
G1 X152.977 Y161.819 E16.58039
G1 X152.627 Y162.079 E16.59489
G1 X151.927 Y162.477 E16.62167
G1 X151.674 Y162.634 E16.63158
G1 X150.909 Y163.243 E16.6641
G1 X148.733 Y164.886 E16.75479
G1 X147.729 Y165.477 E16.79354
G1 X147.444 Y165.586 E16.80369
G1 X147.207 Y165.796 E16.81422
G1 X144.905 Y166.739 E16.89696
G1 X144.482 Y166.794 E16.91114
G1 X144.163 Y166.952 E16.92298
G1 X142.018 Y167.454 E16.99626
G0 F6000 X141.973 Y167.054
G1 F1200 X141.576 Y167.056 E17.00946
G1 X141.184 Y167.099 E17.02258
G1 X140.929 Y167.144 E17.03119
G1 X138.904 Y167.252 E17.09864
G1 X138.551 Y167.176 E17.11065
G1 X138.214 Y167.245 E17.12209
G1 X135.89 Y166.889 E17.20028
G1 X135.571 Y166.769 E17.21162
G1 X135.212 Y166.763 E17.22356
G1 X133.001 Y166.061 E17.30072
G1 X132.694 Y165.86 E17.31292
G1 X132.359 Y165.789 E17.32431
G1 X130.291 Y164.705 E17.40197
G1 X130.031 Y164.46 E17.41385
G1 X129.734 Y164.344 E17.42446
G1 X127.894 Y162.935 E17.50154
G1 X127.609 Y162.559 E17.51723
G1 X127.249 Y162.316 E17.53168
G1 X125.897 Y160.834 E17.5984
G1 X125.573 Y160.326 E17.61844
G1 X125.256 Y160.01 E17.63333
G1 X124.155 Y158.218 E17.70328
G1 X124.026 Y157.83 E17.71688
G1 X123.698 Y157.278 E17.73824
G1 X122.907 Y155.382 E17.80656
G1 X122.875 Y154.909 E17.82233
G1 X122.789 Y154.657 E17.83119
G1 X122.621 Y154.28 E17.84492
G1 X122.253 Y152.579 E17.9028
G1 X122.27 Y152.118 E17.91814
G1 X122.144 Y151.685 E17.93314
G1 X122.072 Y149.777 E17.99665
G1 X122.126 Y149.272 E18.01354
G1 X122.145 Y148.934 E18.0248
G1 X122.149 Y148.536 E18.03804
G1 X122.374 Y146.672 E18.10049
G1 X122.508 Y146.291 E18.11392
G1 X122.571 Y146.024 E18.12304
G1 X122.62 Y145.657 E18.13536
G1 X123.241 Y143.711 E18.2033
G1 X123.49 Y143.31 E18.219
G1 X123.596 Y142.883 E18.23363
G1 X124.595 Y141 E18.30453
G1 X124.877 Y140.679 E18.31874
G1 X125.026 Y140.472 E18.32722
